_site/images/homepage/get-offer-image.svg

<svg fill="none" height="314" viewBox="0 0 365 314" width="365" xmlns="http://www.w3.org/2000/svg" xmlns:xlink="http://www.w3.org/1999/xlink"><filter id="a" color-interpolation-filters="sRGB" filterUnits="userSpaceOnUse" height="287" width="287" x="0" y="27"><feFlood flood-opacity="0" result="BackgroundImageFix"/><feColorMatrix in="SourceAlpha" type="matrix" values="0 0 0 0 0 0 0 0 0 0 0 0 0 0 0 0 0 0 127 0"/><feOffset dy="15"/><feGaussianBlur stdDeviation="22.5"/><feColorMatrix type="matrix" values="0 0 0 0 0.719566 0 0 0 0 0.748166 0 0 0 0 0.795833 0 0 0 0.25 0"/><feBlend in2="BackgroundImageFix" mode="normal" result="effect1_dropShadow"/><feBlend in="SourceGraphic" in2="effect1_dropShadow" mode="normal" result="shape"/></filter><filter id="b" color-interpolation-filters="sRGB" filterUnits="userSpaceOnUse" height="195" width="195" x="170" y="0"><feFlood flood-opacity="0" result="BackgroundImageFix"/><feColorMatrix in="SourceAlpha" type="matrix" values="0 0 0 0 0 0 0 0 0 0 0 0 0 0 0 0 0 0 127 0"/><feOffset dx="9" dy="20"/><feGaussianBlur stdDeviation="20"/><feColorMatrix type="matrix" values="0 0 0 0 0 0 0 0 0 0.351917 0 0 0 0 0.429167 0 0 0 0.25 0"/><feBlend in2="BackgroundImageFix" mode="normal" result="effect1_dropShadow"/><feBlend in="SourceGraphic" in2="effect1_dropShadow" mode="normal" result="shape"/></filter><g filter="url(#a)"><rect fill="#fff" height="197" rx="30" width="197" x="45" y="57"/></g><g filter="url(#b)"><rect fill="#00a0b6" height="115" rx="22" width="115" x="201" y="20"/></g><rect fill="#ffc634" height="49" rx="11" width="49" x="218" y="171"/><path d="m173.307 178.957c13.698-13.698 13.697-35.986 0-49.684-13.698-13.697-35.985-13.697-49.683 0-11.621 11.621-13.38 28.904-5.284 42.4 0 0 .581.976-.204 1.761-4.481 4.48-17.924 17.923-17.924 17.923-3.5678 3.568-4.4171 8.556-1.2534 11.72l.5447.545c3.1637 3.164 8.1527 2.315 11.7197-1.253 0 0 13.415-13.415 17.886-17.886.823-.823 1.799-.242 1.799-.242 13.496 8.096 30.778 6.337 42.399-5.284zm-43.197-6.486c-10.121-10.121-10.121-26.59 0-36.711 10.122-10.121 26.59-10.121 36.711 0s10.121 26.59 0 36.711c-10.122 10.12-26.589 10.12-36.711 0z" fill="#d5eaf1"/><path d="m132.352 152.031c-.471 0-.95-.093-1.412-.288-1.844-.78-2.706-2.908-1.926-4.752 4.905-11.591 18.326-17.031 29.917-12.126 1.844.781 2.706 2.908 1.926 4.752-.781 1.845-2.908 2.707-4.752 1.927-7.909-3.347-17.066.365-20.412 8.273-.586 1.383-1.928 2.214-3.341 2.214z" fill="#d5eaf1"/><path d="m245.944 186.56c-3.414-3.414-8.969-3.414-12.383 0-3.415 3.415-3.415 8.97 0 12.384 2.896 2.896 7.204 3.335 10.568 1.317 0 0 .243-.145.439.051 1.116 1.117 4.467 4.468 4.467 4.468.889.889 2.133 1.1 2.921.312l.136-.136c.789-.788.577-2.032-.312-2.921 0 0-3.344-3.344-4.458-4.458-.205-.205-.061-.448-.061-.448 2.018-3.364 1.58-7.672-1.317-10.569zm-1.616 10.767c-2.523 2.523-6.628 2.523-9.151 0-2.522-2.522-2.522-6.627 0-9.15 2.523-2.523 6.628-2.523 9.151 0 2.522 2.523 2.522 6.628 0 9.15z" fill="#fff"/><path clip-rule="evenodd" d="m281 69.085c-.029-.2526-.084-.5015-.165-.7425v-.2475c-.132-.2828-.309-.5427-.523-.77l-16.499-16.5c-.228-.2139-.488-.3903-.77-.5225-.083-.0117-.166-.0117-.248 0-.279-.1602-.588-.2631-.907-.3025h-16.638c-4.556 0-8.25 3.6936-8.25 8.25v38.5c0 4.556 3.694 8.25 8.25 8.25h27.5c4.556 0 8.25-3.694 8.25-8.25v-27.5zm-27.5 2.915h-2.75c-1.519 0-2.75-1.2312-2.75-2.75s1.231-2.75 2.75-2.75h2.75c1.519 0 2.75 1.2312 2.75 2.75s-1.231 2.75-2.75 2.75zm-5.5 8.25c0-1.5188 1.231-2.75 2.75-2.75h16.5c1.519 0 2.75 1.2312 2.75 2.75s-1.231 2.75-2.75 2.75h-16.5c-1.519 0-2.75-1.2312-2.75-2.75zm23.623-13.7505-7.123-7.1225v4.3725c0 1.5187 1.231 2.75 2.75 2.75zm3.877 30.2505c0 1.5188-1.231 2.75-2.75 2.75h-27.5c-1.519 0-2.75-1.2312-2.75-2.75v-38.5c0-1.5188 1.231-2.75 2.75-2.75h13.75v8.25c0 4.5564 3.694 8.25 8.25 8.25h8.25zm-24.75-8.25h16.5c1.519 0 2.75 1.2312 2.75 2.75s-1.231 2.75-2.75 2.75h-16.5c-1.519 0-2.75-1.2312-2.75-2.75s1.231-2.75 2.75-2.75z" fill="#fff" fill-rule="evenodd"/><g fill="#9cd7eb"><rect height="20" rx="10" transform="matrix(-1 0 0 -1 370 134)" width="57" x="185" y="67"/><rect height="20" rx="10" transform="matrix(-1 0 0 -1 618 382)" width="28" x="309" y="191"/><rect height="20" rx="10" transform="matrix(-1 0 0 -1 118 480)" width="28" x="59" y="240"/></g></svg>

<svg width="365" height="314" viewBox="0 0 365 314" fill="none" xmlns="http://www.w3.org/2000/svg">
<g filter="url(#filter0_d)">
<rect x="45" y="57" width="197" height="197" rx="30" fill="white"/>
</g>
<g filter="url(#filter1_d)">
<rect x="201" y="20" width="115" height="115" rx="22" fill="#00A0B6"/>
</g>
<rect x="218" y="171" width="49" height="49" rx="11" fill="#FFC634"/>
<path d="M173.307 178.957C187.005 165.259 187.004 142.971 173.307 129.273C159.609 115.576 137.322 115.576 123.624 129.273C112.003 140.894 110.244 158.177 118.34 171.673C118.34 171.673 118.921 172.649 118.136 173.434C113.655 177.914 100.212 191.357 100.212 191.357C96.6442 194.925 95.7949 199.913 98.9586 203.077L99.5033 203.622C102.667 206.786 107.656 205.937 111.223 202.369C111.223 202.369 124.638 188.954 129.109 184.483C129.932 183.66 130.908 184.241 130.908 184.241C144.404 192.337 161.686 190.578 173.307 178.957ZM130.11 172.471C119.989 162.35 119.989 145.881 130.11 135.76C140.232 125.639 156.7 125.639 166.821 135.76C176.942 145.881 176.942 162.35 166.821 172.471C156.699 182.591 140.232 182.591 130.11 172.471Z" fill="#D5EAF1"/>
<path d="M132.352 152.031C131.881 152.031 131.402 151.938 130.94 151.743C129.096 150.963 128.234 148.835 129.014 146.991C133.919 135.4 147.34 129.96 158.931 134.865C160.775 135.646 161.637 137.773 160.857 139.617C160.076 141.462 157.949 142.324 156.105 141.544C148.196 138.197 139.039 141.909 135.693 149.817C135.107 151.2 133.765 152.031 132.352 152.031Z" fill="#D5EAF1"/>
<path d="M245.944 186.56C242.53 183.146 236.975 183.146 233.561 186.56C230.146 189.975 230.146 195.53 233.561 198.944C236.457 201.84 240.765 202.279 244.129 200.261C244.129 200.261 244.372 200.116 244.568 200.312C245.684 201.429 249.035 204.78 249.035 204.78C249.924 205.669 251.168 205.88 251.956 205.092L252.092 204.956C252.881 204.168 252.669 202.924 251.78 202.035C251.78 202.035 248.436 198.691 247.322 197.577C247.117 197.372 247.261 197.129 247.261 197.129C249.279 193.765 248.841 189.457 245.944 186.56ZM244.328 197.327C241.805 199.85 237.7 199.85 235.177 197.327C232.655 194.805 232.655 190.7 235.177 188.177C237.7 185.654 241.805 185.654 244.328 188.177C246.85 190.7 246.85 194.805 244.328 197.327Z" fill="white"/>
<path fill-rule="evenodd" clip-rule="evenodd" d="M281 69.085C280.971 68.8324 280.916 68.5835 280.835 68.3425V68.095C280.703 67.8122 280.526 67.5523 280.312 67.325L263.813 50.825C263.585 50.6111 263.325 50.4347 263.043 50.3025C262.96 50.2908 262.877 50.2908 262.795 50.3025C262.516 50.1423 262.207 50.0394 261.888 50H245.25C240.694 50 237 53.6936 237 58.25V96.75C237 101.306 240.694 105 245.25 105H272.75C277.306 105 281 101.306 281 96.75V69.25V69.085ZM253.5 72H250.75C249.231 72 248 70.7688 248 69.25C248 67.7312 249.231 66.5 250.75 66.5H253.5C255.019 66.5 256.25 67.7312 256.25 69.25C256.25 70.7688 255.019 72 253.5 72ZM248 80.25C248 78.7312 249.231 77.5 250.75 77.5H267.25C268.769 77.5 270 78.7312 270 80.25C270 81.7688 268.769 83 267.25 83H250.75C249.231 83 248 81.7688 248 80.25ZM271.623 66.4995L264.5 59.377V63.7495C264.5 65.2682 265.731 66.4995 267.25 66.4995H271.623ZM275.5 96.75C275.5 98.2688 274.269 99.5 272.75 99.5H245.25C243.731 99.5 242.5 98.2688 242.5 96.75V58.25C242.5 56.7312 243.731 55.5 245.25 55.5H259V63.75C259 68.3064 262.694 72 267.25 72H275.5V96.75ZM250.75 88.5H267.25C268.769 88.5 270 89.7312 270 91.25C270 92.7688 268.769 94 267.25 94H250.75C249.231 94 248 92.7688 248 91.25C248 89.7312 249.231 88.5 250.75 88.5Z" fill="white"/>
<rect x="185" y="67" width="57" height="20" rx="10" transform="rotate(-180 185 67)" fill="#9CD7EB"/>
<rect x="309" y="191" width="28" height="20" rx="10" transform="rotate(-180 309 191)" fill="#9CD7EB"/>
<rect x="59" y="240" width="28" height="20" rx="10" transform="rotate(-180 59 240)" fill="#9CD7EB"/>
<defs>
<filter id="filter0_d" x="0" y="27" width="287" height="287" filterUnits="userSpaceOnUse" color-interpolation-filters="sRGB">
<feFlood flood-opacity="0" result="BackgroundImageFix"/>
<feColorMatrix in="SourceAlpha" type="matrix" values="0 0 0 0 0 0 0 0 0 0 0 0 0 0 0 0 0 0 127 0"/>
<feOffset dy="15"/>
<feGaussianBlur stdDeviation="22.5"/>
<feColorMatrix type="matrix" values="0 0 0 0 0.719566 0 0 0 0 0.748166 0 0 0 0 0.795833 0 0 0 0.25 0"/>
<feBlend mode="normal" in2="BackgroundImageFix" result="effect1_dropShadow"/>
<feBlend mode="normal" in="SourceGraphic" in2="effect1_dropShadow" result="shape"/>
</filter>
<filter id="filter1_d" x="170" y="0" width="195" height="195" filterUnits="userSpaceOnUse" color-interpolation-filters="sRGB">
<feFlood flood-opacity="0" result="BackgroundImageFix"/>
<feColorMatrix in="SourceAlpha" type="matrix" values="0 0 0 0 0 0 0 0 0 0 0 0 0 0 0 0 0 0 127 0"/>
<feOffset dx="9" dy="20"/>
<feGaussianBlur stdDeviation="20"/>
<feColorMatrix type="matrix" values="0 0 0 0 0 0 0 0 0 0.351917 0 0 0 0 0.429167 0 0 0 0.25 0"/>
<feBlend mode="normal" in2="BackgroundImageFix" result="effect1_dropShadow"/>
<feBlend mode="normal" in="SourceGraphic" in2="effect1_dropShadow" result="shape"/>
</filter>
</defs>
</svg>
